svg/part/hand_grab_line.svg

<?xml version="1.0" encoding="UTF-8"?>
<svg width="24px" height="24px" viewBox="0 0 24 24" version="1.1" xmlns="http://www.w3.org/2000/svg" xmlns:xlink="http://www.w3.org/1999/xlink">
    <title>hand_grab_line</title>
    <g id="Icon" stroke="none" stroke-width="1" fill="none" fill-rule="evenodd">
        <g id="Part" transform="translate(-96.000000, -96.000000)">
            <g id="hand_grab_line" transform="translate(96.000000, 96.000000)">
                <path d="M24,0 L24,24 L0,24 L0,0 L24,0 Z M12.5934901,23.257841 L12.5819402,23.2595131 L12.5108777,23.2950439 L12.4918791,23.2987469 L12.4918791,23.2987469 L12.4767152,23.2950439 L12.4056548,23.2595131 C12.3958229,23.2563662 12.3870493,23.2590235 12.3821421,23.2649074 L12.3780323,23.275831 L12.360941,23.7031097 L12.3658947,23.7234994 L12.3769048,23.7357139 L12.4804777,23.8096931 L12.4953491,23.8136134 L12.4953491,23.8136134 L12.5071152,23.8096931 L12.6106902,23.7357139 L12.6232938,23.7196733 L12.6232938,23.7196733 L12.6266527,23.7031097 L12.609561,23.275831 C12.6075724,23.2657013 12.6010112,23.2592993 12.5934901,23.257841 L12.5934901,23.257841 Z M12.8583906,23.1452862 L12.8445485,23.1473072 L12.6598443,23.2396597 L12.6498822,23.2499052 L12.6498822,23.2499052 L12.6471943,23.2611114 L12.6650943,23.6906389 L12.6699349,23.7034178 L12.6699349,23.7034178 L12.678386,23.7104931 L12.8793402,23.8032389 C12.8914285,23.8068999 12.9022333,23.8029875 12.9078286,23.7952264 L12.9118235,23.7811639 L12.8776777,23.1665331 C12.8752882,23.1545897 12.8674102,23.1470016 12.8583906,23.1452862 L12.8583906,23.1452862 Z M12.1430473,23.1473072 C12.1332178,23.1423925 12.1221763,23.1452606 12.1156365,23.1525954 L12.1099173,23.1665331 L12.0757714,23.7811639 C12.0751323,23.7926639 12.0828099,23.8018602 12.0926481,23.8045676 L12.108256,23.8032389 L12.3092106,23.7104931 L12.3186497,23.7024347 L12.3186497,23.7024347 L12.3225043,23.6906389 L12.340401,23.2611114 L12.337245,23.2485176 L12.337245,23.2485176 L12.3277531,23.2396597 L12.1430473,23.1473072 Z" id="MingCute" fill-rule="nonzero"></path>
                <path d="M17.9611,7.05823 C17.7525,5.88823 16.73,5 15.5,5 C15.1874,5 14.8882,5.05738 14.6123,5.16218 C14.169,4.46363 13.3887,4 12.5,4 C11.6114,4 10.8311,4.46363 10.3877,5.16218 C10.1119,5.05738 9.81265,5 9.50003,5 C8.11932,5 7.00003,6.11929 7.00003,7.5 L7.00003,8.46161 C6.71472,8.22518 6.42689,8.02868 6.13061,7.87812 C5.10996,7.35949 4.11856,7.43909 3.07624,7.86637 C2.23578,8.2109 1.96875,9.17351 2.32921,9.89443 L5.17085,15.5777 C6.52599,18.288 9.29609,20 12.3263,20 L13,20 C17.4183,20 21,16.4183 21,12 C21,11.1667 21,10.3333 21,9.5 C21,8.11929 19.8807,7 18.5,7 C18.315,7 18.1347,7.0201 17.9611,7.05823 Z M10,7.5 C10,7.22386 9.77617,7 9.50003,7 C9.22389,7 9.00003,7.22386 9.00003,7.5 L9.00003,11 C9.00003,11.4247 8.73179,11.8031 8.33104,11.9436 C7.93029,12.0842 7.48446,11.9563 7.21916,11.6247 C6.29456,10.4689 5.70331,9.90439 5.22459,9.66113 C4.97702,9.53533 4.73139,9.48014 4.3899,9.54368 L6.95971,14.6833 C7.97606,16.716 10.0536,18 12.3263,18 L13,18 C16.3137,18 19,15.3137 19,12 C19,11.1667 19,10.3333 19,9.5 C19,9.22386 18.7762,9 18.5,9 C18.2239,9 18,9.22386 18,9.5 L18,10 C18,10.5523 17.5523,11 17,11 C16.4477,11 16,10.5523 16,10 C16,9.16667 16,8.33333 16,7.5 C16,7.22386 15.7762,7 15.5,7 C15.2239,7 15,7.22386 15,7.5 L15,10 C15,10.5523 14.5523,11 14,11 C13.4477,11 13,10.5523 13,10 L13,6.5 C13,6.22386 12.7762,6 12.5,6 C12.2239,6 12,6.22386 12,6.5 L12,10 C12,10.5523 11.5523,11 11,11 C10.4477,11 10,10.5523 10,10 L10,7.5 Z" id="形状" fill="#09244B"></path>
            </g>
        </g>
    </g>
</svg>

<svg xmlns="http://www.w3.org/2000/svg" width="24" height="24"><g fill="none" fill-rule="evenodd"><path d="M24 0v24H0V0h24ZM12.593 23.258l-.011.002-.071.035-.02.004-.014-.004-.071-.035c-.01-.004-.019-.001-.024.005l-.004.01-.017.428.005.02.01.013.104.074.015.004.012-.004.104-.074.012-.016.004-.017-.017-.427c-.002-.01-.009-.017-.017-.018Zm.265-.113-.013.002-.185.093-.01.01-.003.011.018.43.005.012.008.007.201.093c.012.004.023 0 .029-.008l.004-.014-.034-.614c-.003-.012-.01-.02-.02-.022Zm-.715.002a.023.023 0 0 0-.027.006l-.006.014-.034.614c0 .012.007.02.017.024l.015-.002.201-.093.01-.008.004-.011.017-.43-.003-.012-.01-.01-.184-.092Z"/><path fill="#09244B" d="M17.961 7.058a2.5 2.5 0 0 0-3.349-1.896 2.498 2.498 0 0 0-4.225 0A2.5 2.5 0 0 0 7 7.5l.001.962a4.732 4.732 0 0 0-.87-.584C5.11 7.36 4.12 7.44 3.077 7.866c-.84.345-1.107 1.308-.747 2.028l2.842 5.684A8 8 0 0 0 12.326 20H13a8 8 0 0 0 8-8V9.5a2.5 2.5 0 0 0-3.039-2.442ZM10 7.5a.5.5 0 1 0-1 0V11a1 1 0 0 1-1.78.625c-.925-1.156-1.517-1.72-1.995-1.964a1.214 1.214 0 0 0-.835-.117l2.57 5.14A6 6 0 0 0 12.326 18H13a6 6 0 0 0 6-6V9.5a.5.5 0 1 0-1 0v.5a1 1 0 1 1-2 0V7.5a.5.5 0 1 0-1 0V10a1 1 0 1 1-2 0V6.5a.5.5 0 1 0-1 0V10a1 1 0 1 1-2 0V7.5Z"/></g></svg>
